X:222
T:Murray River Jig, The
R:Jig
M:6/8
%%printtempo 0
Q:180
K:A
AB|\
"A"c3 cBA| E3EAB | cBc dcB | "D"F3 FBc| "Bm"d2d dcB|
"E"g3 g2f |1 efe e^de| ged "A"c :|2 efe ecB |A3 A|:
ed| "A"cAA AB=c | "G"B=GG G2F | "A"EAA AGA | "Bm"Bee "E"e2d|
"A"cAA AB=c| "G"B=GG G2F | "A"EAA "E"GAB | "A"cAA A :|
